icons/arrow/down.svg

<svg width="32" height="32" viewBox="0 0 32 32" fill="none" xmlns="http://www.w3.org/2000/svg">
<path fill-rule="evenodd" clip-rule="evenodd" d="M17 24.2525L24.2929 16.9596L25.7071 18.3738L16.7071 27.3738L16 28.0809L15.2929 27.3738L6.29291 18.3738L7.70712 16.9596L15 24.2525V4.00002H17V24.2525Z" fill="black"/>
</svg>

<svg viewBox="0 0 32 32" xmlns="http://www.w3.org/2000/svg"><path fill-rule="evenodd" d="M17 24.253l7.293-7.293 1.414 1.414-9 9-.707.707-.707-.707-9-9 1.414-1.414L15 24.253V4h2v20.253z"/></svg>
